img/svg/mail.svg

<svg width="18" height="14" viewBox="0 0 18 14" fill="none" xmlns="http://www.w3.org/2000/svg">
<path d="M15.7998 0.583332H2.2002C1.40156 0.583332 0.75 1.23418 0.75 2.03353V11.7015C0.75 12.4981 1.39866 13.1517 2.2002 13.1517H15.7998C16.5964 13.1517 17.25 12.503 17.25 11.7015V2.03353C17.25 1.23689 16.6013 0.583332 15.7998 0.583332ZM15.5995 1.55013L9.03074 8.11897L2.40512 1.55013H15.5995ZM1.7168 11.5013V2.22911L6.37286 6.84524L1.7168 11.5013ZM2.40042 12.1849L7.05941 7.5259L8.69191 9.14438C8.88089 9.33175 9.18585 9.33113 9.37405 9.1429L10.9658 7.55113L15.5996 12.1849H2.40042ZM16.2832 11.5013L11.6494 6.86751L16.2832 2.23372V11.5013Z" fill="#342834"/>
</svg>

<svg width="18" height="14" viewBox="0 0 18 14" fill="none" xmlns="http://www.w3.org/2000/svg"><path d="M15.8.583H2.2c-.798 0-1.45.651-1.45 1.45v9.668c0 .797.649 1.45 1.45 1.45h13.6c.796 0 1.45-.648 1.45-1.45V2.034c0-.797-.649-1.45-1.45-1.45zm-.2.967L9.03 8.12 2.406 1.55H15.6zM1.717 11.501V2.23l4.656 4.616-4.656 4.656zm.683.684l4.66-4.66 1.632 1.62a.483.483 0 00.682-.002l1.592-1.592 4.634 4.634H2.4zm13.883-.684L11.65 6.868l4.634-4.634V11.5z" fill="#342834"/></svg>
